X:54
T:Grand March
O:No 54 Wm Clarke of Feltwell   MS 1858
N:After repeat sign: changed value of rest. (qvr)
I:abc2nwc
M:2/2
L:1/8
K:C
g3/2g/2|c'4b2b2|c'4g2e2|f2f2d2^f2|g2g2gabg|
c'4b2b2|c'4g2e2|f2f2d2b2|c'2c'3/2c'/2 c'2:|
|:z2|g2g2gefg|a2a2agfe|f2f2fdef|g2g2gabg|
c'4b2b2|c'4g2e2|f2f2d2b2|c'2c'3/2c'/2 c'2:|

